!!!OTL: Der Gleichgueltige.
!!!OTL-incipit: WENN I MAI SCHOTZERL NET HOBEN WILL
!!!ARE: Europa, Mitteleuropa, Deutschland, Boehmen
!!!SCT: Z1225
!!!TXL: @@DE
!!!YEM: Copyright 1995, estate of Helmut Schaffrath.
**kern	**text
*ICvox	*
*M3/8	*
*k[b-]	*
*F:	*
!LO:TX:a:t=Aus Böhmen.	!
{8cc	Wenn
8cc	i
8cc	mai
=1	=1
8a	Schotʒerl
(16aL	.
16gJ)	.
(16aL	net
16fJ)	.
=2	=2
8b-	ho-
8b-	-ben
8b-}	will,
=3	=3
{8cc	hob
(16ccL	i
16ddJ)	.
(16ccL	wuhl
16b-J)	.
=4	=4
8a	on-
(16aL	-dre
16gJ)	.
(16a/L	ʒwoa
16ccJ)	.
=5	=5
4b-	drei,
8r}	.
=6	=6
{8cc	wenn
8cc	i
8cc	mai
=7	=7
8a	Schotʒerl
16aL	.
16gJ	.
16aL	net
16fJ	.
=8	=8
8b-	ho-
8b-	-ben
8b-}	will,
=9	=9
{8cc	hob
16ccL	i
16ddJ	.
16ccL	wuhl
16b-J	.
=10	=10
8a	on-
16aL	-dre
16gJ	.
16a/L	ʒwoa
16ccJ	.
=11	=11
4b-	drei!
8r}	.
=12	=12
{8g	ſetʒ
8g	i
8g	mai
=13	=13
8e	Heu-
8c	-tel
8c	af
=14	=14
8f	d'Seit
16fL	und
16aJ	.
16cc/L	dau
16aJ}	.
=15	=15
{8g	gäih
(16gL	i
16aJ)	.
(16gL	ʒu
16fJ)	.
=16	=16
8e	an-
16eL	-dern
16cJ	.
16dL	af
16eJ	.
=17	=17
4f	d'Wait!
8r}	.
==	==
!!!AGN: Liebes - Lied
!!!ONB: ESAC (Essen Associative Code) Database: ZUCCAL
!!!AMT: simple triple
!!!AIN: vox
!!!EED: Helmut Schaffrath
!!!EEV: 1.0
!!!GTL: V. Lieder der Minne.
!!!URL-scan: https://www.digitale-sammlungen.de/de/view/bsb11160573?page=435
!!!ENC: Anna Maria Matuszewska
!!!EEV: 2025/02/06
*-	*-
